svg/icon/rads.svg

<svg height="32" viewBox="0 0 32 32" width="32" xmlns="http://www.w3.org/2000/svg" xmlns:xlink="http://www.w3.org/1999/xlink"><defs><linearGradient id="a" x1="50%" x2="50%" y1="0%" y2="100%"><stop offset="0" stop-color="#fff" stop-opacity=".5"/><stop offset="1" stop-opacity=".5"/></linearGradient><circle id="b" cx="16" cy="15" r="15"/><filter id="c" height="111.7%" width="111.7%" x="-5.8%" y="-4.2%"><feOffset dy=".5" in="SourceAlpha" result="shadowOffsetOuter1"/><feGaussianBlur in="shadowOffsetOuter1" result="shadowBlurOuter1" stdDeviation=".5"/><feComposite in="shadowBlurOuter1" in2="SourceAlpha" operator="out" result="shadowBlurOuter1"/><feColorMatrix in="shadowBlurOuter1" values="0 0 0 0 0   0 0 0 0 0   0 0 0 0 0  0 0 0 0.199473505 0"/></filter><path id="d" d="m11.46944 6.66144c2.1032 0 3.808 1.70496 3.808 3.808s-1.70496 3.808-3.808 3.808-3.808-1.70496-3.808-3.808 1.70496-3.808 3.808-3.808zm3.808 12.86912c0 2.1032-1.70496 3.808-3.808 3.808s-3.808-1.70496-3.808-3.808 1.70496-3.808 3.808-3.808c2.90096 0 5.2528-2.352 5.2528-5.2528 0-2.1032 1.70496-3.808 3.808-3.808s3.808 1.70496 3.808 3.808-1.70496 3.808-3.808 3.808c-2.9008 0-5.25248 2.35168-5.25248 5.2528zm5.2528 3.808c-2.1032 0-3.808-1.70496-3.808-3.808s1.70496-3.808 3.808-3.808 3.808 1.70496 3.808 3.808-1.70464 3.808-3.80768 3.808zm.00032-2.66c.6340229 0 1.148-.5139771 1.148-1.148s-.5139771-1.148-1.148-1.148-1.148.5139771-1.148 1.148.5139771 1.148 1.148 1.148zm-9.06112 0c.6340229 0 1.148-.5139771 1.148-1.148s-.5139771-1.148-1.148-1.148-1.148.5139771-1.148 1.148.5139771 1.148 1.148 1.148zm9.06112-9.06112c.6340229 0 1.148-.5139771 1.148-1.148 0-.63402289-.5139771-1.148-1.148-1.148s-1.148.51397711-1.148 1.148c0 .6340229.5139771 1.148 1.148 1.148zm-9.06112 0c.6340229 0 1.148-.5139771 1.148-1.148 0-.63402289-.5139771-1.148-1.148-1.148s-1.148.51397711-1.148 1.148c0 .6340229.5139771 1.148 1.148 1.148z"/><filter id="e" height="121%" width="121%" x="-10.5%" y="-7.5%"><feOffset dy=".5" in="SourceAlpha" result="shadowOffsetOuter1"/><feGaussianBlur in="shadowOffsetOuter1" result="shadowBlurOuter1" stdDeviation=".5"/><feColorMatrix in="shadowBlurOuter1" values="0 0 0 0 0   0 0 0 0 0   0 0 0 0 0  0 0 0 0.204257246 0"/></filter></defs><g fill="none" fill-rule="evenodd"><use fill="#000" filter="url(#c)" xlink:href="#b"/><use fill="#9d4bef" xlink:href="#b"/><use fill="url(#a)" xlink:href="#b"/><circle cx="16" cy="15" r="14.5" stroke="#000" stroke-opacity=".097"/><g fill-rule="nonzero"><use fill="#000" filter="url(#e)" xlink:href="#d"/><use fill="#fff" fill-rule="evenodd" xlink:href="#d"/></g></g></svg>

<svg xmlns="http://www.w3.org/2000/svg" xmlns:xlink="http://www.w3.org/1999/xlink" width="32" height="32" viewBox="0 0 32 32">
  <defs>
    <linearGradient id="rads-c" x1="50%" x2="50%" y1="0%" y2="100%">
      <stop offset="0%" stop-color="#FFF" stop-opacity=".5"/>
      <stop offset="100%" stop-opacity=".5"/>
    </linearGradient>
    <circle id="rads-b" cx="16" cy="15" r="15"/>
    <filter id="rads-a" width="111.7%" height="111.7%" x="-5.8%" y="-4.2%" filterUnits="objectBoundingBox">
      <feOffset dy=".5" in="SourceAlpha" result="shadowOffsetOuter1"/>
      <feGaussianBlur in="shadowOffsetOuter1" result="shadowBlurOuter1" stdDeviation=".5"/>
      <feComposite in="shadowBlurOuter1" in2="SourceAlpha" operator="out" result="shadowBlurOuter1"/>
      <feColorMatrix in="shadowBlurOuter1" values="0 0 0 0 0   0 0 0 0 0   0 0 0 0 0  0 0 0 0.199473505 0"/>
    </filter>
    <path id="rads-e" d="M11.46944,6.66144 C13.57264,6.66144 15.27744,8.3664 15.27744,10.46944 C15.27744,12.57248 13.57248,14.27744 11.46944,14.27744 C9.3664,14.27744 7.66144,12.57248 7.66144,10.46944 C7.66144,8.3664 9.3664,6.66144 11.46944,6.66144 Z M15.27744,19.53056 C15.27744,21.63376 13.57248,23.33856 11.46944,23.33856 C9.3664,23.33856 7.66144,21.6336 7.66144,19.53056 C7.66144,17.42752 9.3664,15.72256 11.46944,15.72256 C14.3704,15.72256 16.72224,13.37056 16.72224,10.46976 C16.72224,8.36656 18.4272,6.66176 20.53024,6.66176 C22.63328,6.66176 24.33824,8.36672 24.33824,10.46976 C24.33824,12.5728 22.63328,14.27776 20.53024,14.27776 C17.62944,14.27776 15.27776,16.62944 15.27776,19.53056 L15.27744,19.53056 Z M20.53024,23.33856 C18.42704,23.33856 16.72224,21.6336 16.72224,19.53056 C16.72224,17.42752 18.4272,15.72256 20.53024,15.72256 C22.63328,15.72256 24.33824,17.42752 24.33824,19.53056 C24.33824,21.6336 22.6336,23.33856 20.53056,23.33856 L20.53024,23.33856 Z M20.53056,20.67856 C21.1645829,20.67856 21.67856,20.1645829 21.67856,19.53056 C21.67856,18.8965371 21.1645829,18.38256 20.53056,18.38256 C19.8965371,18.38256 19.38256,18.8965371 19.38256,19.53056 C19.38256,20.1645829 19.8965371,20.67856 20.53056,20.67856 Z M11.46944,20.67856 C12.1034629,20.67856 12.61744,20.1645829 12.61744,19.53056 C12.61744,18.8965371 12.1034629,18.38256 11.46944,18.38256 C10.8354171,18.38256 10.32144,18.8965371 10.32144,19.53056 C10.32144,20.1645829 10.8354171,20.67856 11.46944,20.67856 Z M20.53056,11.61744 C21.1645829,11.61744 21.67856,11.1034629 21.67856,10.46944 C21.67856,9.83541711 21.1645829,9.32144 20.53056,9.32144 C19.8965371,9.32144 19.38256,9.83541711 19.38256,10.46944 C19.38256,11.1034629 19.8965371,11.61744 20.53056,11.61744 Z M11.46944,11.61744 C12.1034629,11.61744 12.61744,11.1034629 12.61744,10.46944 C12.61744,9.83541711 12.1034629,9.32144 11.46944,9.32144 C10.8354171,9.32144 10.32144,9.83541711 10.32144,10.46944 C10.32144,11.1034629 10.8354171,11.61744 11.46944,11.61744 Z"/>
    <filter id="rads-d" width="121%" height="121%" x="-10.5%" y="-7.5%" filterUnits="objectBoundingBox">
      <feOffset dy=".5" in="SourceAlpha" result="shadowOffsetOuter1"/>
      <feGaussianBlur in="shadowOffsetOuter1" result="shadowBlurOuter1" stdDeviation=".5"/>
      <feColorMatrix in="shadowBlurOuter1" values="0 0 0 0 0   0 0 0 0 0   0 0 0 0 0  0 0 0 0.204257246 0"/>
    </filter>
  </defs>
  <g fill="none" fill-rule="evenodd">
    <use fill="#000" filter="url(#rads-a)" xlink:href="#rads-b"/>
    <use fill="#9D4BEF" xlink:href="#rads-b"/>
    <use fill="url(#rads-c)" style="mix-blend-mode:soft-light" xlink:href="#rads-b"/>
    <circle cx="16" cy="15" r="14.5" stroke="#000" stroke-opacity=".097"/>
    <g fill-rule="nonzero">
      <use fill="#000" filter="url(#rads-d)" xlink:href="#rads-e"/>
      <use fill="#FFF" fill-rule="evenodd" xlink:href="#rads-e"/>
    </g>
  </g>
</svg>
